X: 1
T: Gates Of Mullagh, The
M: 4/4
L: 1/8
R: reel
K: Gmaj
D|:GFGB DBGB|eBdB cBAF|D3E FGAB|cAed cAFA|
Gggf gdBd|eBdB cBAc|Bg (3gfg bgag|fdcA BGG2:|
|:Bdge dB (3BBB|cBAG FADF|GABG Aaag|(3efg ag fdcA|
Bg (3gfg dBGB|cBAG FADC|B,DGB Ac (3ccc|(3dcB cA BGG2:|
